X:1
T:Billy Nicolson
C:Buddy MacMaster
O:Cape Breton
R:Reel
M:C|
Q:1/2=120
K:G
%%MIDI gchord czczczcz
D2 | "G"G2 GA B2 AG| "Am"AEAB "D7"c2 Bc| "G"dgge "Em"dedB| cAGA "D7"GFED|
     "Em"GDGA B2 AG| "Am"AEAB "D7"c2 Bc| "G"dgge "D7"dedc| "G"B2 G2 G2 :|
d2 | "G"dggf "Em"g2 fg| "Am"eaa^g "D7"a2-af| "G"gage dedB| "D7"c2 A2 A4|
     "G"dggf "Em"g2 fg| "Am"eaa^g "D7"a2-af| "G"gage "D7"dedB| "G"B2 G2 G2
d2 | "G"dggf "Em"g2 fg| "Am"eaa^g "D7"a2-af| "G"gage dedB| "A"cAGA "D7"GFED|
     "G"G2 GA "Em"B2 AG| "Am"AEAB "D7"c2 Bc| "G"dgge "D7"dedc| "G"B2 G2 G2 |]
